!!!COM: demi-lovato
!!!OTL: here-we-go-again
!!!RNB: hooktheoryid: wDpgvDbeoad
**kern	**text
*clefG2	*
*k[b-]	*
*M4/4	*
=1	=1
2..r	F
8F	.
=2	=2
8c	F
8c	.
8c	.
8c	.
8c	.
8A	.
[4A	.
=3	=3
8A]	F
2r	.
8r	.
8F	.
8F	.
=4	=4
8c	F
8c	.
8c	.
4c	.
8A	.
4A	.
=5	=5
4G	Dm
2r	.
8r	.
8F	.
=6	=6
8d	Dm
8f	.
8f	.
4f	.
8c	.
[4c	.
=7	=7
8c]	Bb
2r	.
8r	.
8B-	.
8A	.
=8	=8
8B-	Bb
8A	.
8B-	.
8B-	.
8c	.
4.c	.
=9	=9
2..r	F
8f	.
=10	=10
8f	F
8f	.
8f	.
8d	.
8f	.
8g	.
[4g	.
=11	=11
8g]	F
2r	.
8r	.
8f	.
8d	.
=12	=12
8f	F
8f	.
8f	.
8e	.
8f	.
4cc	.
[8a	.
=13	=13
4a]	Dm
2r	.
8a	.
8g	.
=14	=14
8a	Dm
8a	.
8a	.
8a	.
8a	.
4.b-	.
=15	=15
4.a	Bb
4.b-	.
[4a	.
=16	=16
8a]	Bb
4.f	.
4.d	.
8r	.
=17	=17
4.a	Gm
4.b-	.
[4a	.
=18	=18
8a]	Bb
4.f	.
4d	.
4f	.
=19	=19
4.b-	.
2r	.
8r	.
*-	*-